X: 0613
T: CHORUS JIG
B: Oliver Ditson "The Boston Collection of Instrumental Music" 1910 p.61 #3
F: http://conquest.imslp.info/files/imglnks/usimg/8/8f/IMSLP175643-PMLP309456-bostoncollection00bost_bw.pdf
M: 2/4
L: 1/16
K: G
dc | BGGB dedc | BGGB d2 dc | BGGB dedc | BGGB c2 :|\
|: de/f/ | g2f2e2d2 | dgfg d2 de/f/ | gefd ecdB | cBAB c2 :|
|: ab/c'/ | bggb bggb | bggb d'2 d'c' | bggb bggb | agab c'2 :|\
|: ba | gefd ecdB | dgfg d2 de/f/ | gefd ecdB | cBAB c2 :|

%%sep 1 1 500
%%sep 1 1 500
